bernoullicharts/log_1_x_flajolet__bits.svg

<?xml version="1.0" encoding="utf-8" standalone="no"?>
<!DOCTYPE svg PUBLIC "-//W3C//DTD SVG 1.1//EN"
  "http://www.w3.org/Graphics/SVG/1.1/DTD/svg11.dtd">
<!-- Created with matplotlib (https://matplotlib.org/) -->
<svg height="345.6pt" version="1.1" viewBox="0 0 460.8 345.6" width="460.8pt" xmlns="http://www.w3.org/2000/svg" xmlns:xlink="http://www.w3.org/1999/xlink">
 <defs>
  <style type="text/css">
*{stroke-linecap:butt;stroke-linejoin:round;}
  </style>
 </defs>
 <g id="figure_1">
  <g id="patch_1">
   <path d="M 0 345.6 
L 460.8 345.6 
L 460.8 0 
L 0 0 
z
" style="fill:#ffffff;"/>
  </g>
  <g id="axes_1">
   <g id="patch_2">
    <path d="M 57.6 307.584 
L 414.72 307.584 
L 414.72 41.472 
L 57.6 41.472 
z
" style="fill:#ffffff;"/>
   </g>
   <g id="matplotlib.axis_1">
    <g id="xtick_1">
     <g id="line2d_1">
      <defs>
       <path d="M 0 0 
L 0 3.5 
" id="m297e92ea27" style="stroke:#000000;stroke-width:0.8;"/>
      </defs>
      <g>
       <use style="stroke:#000000;stroke-width:0.8;" x="73.800255" xlink:href="#m297e92ea27" y="307.584"/>
      </g>
     </g>
     <g id="text_1">
      <text style="font-family:DejaVu Sans;font-size:10px;font-style:normal;font-weight:normal;text-anchor:middle;" transform="rotate(-0, 73.800255, 322.182437)" x="73.800255" y="322.182437">0.0</text>
     </g>
    </g>
    <g id="xtick_2">
     <g id="line2d_2">
      <g>
       <use style="stroke:#000000;stroke-width:0.8;" x="138.744153" xlink:href="#m297e92ea27" y="307.584"/>
      </g>
     </g>
     <g id="text_2">
      <text style="font-family:DejaVu Sans;font-size:10px;font-style:normal;font-weight:normal;text-anchor:middle;" transform="rotate(-0, 138.744153, 322.182437)" x="138.744153" y="322.182437">0.2</text>
     </g>
    </g>
    <g id="xtick_3">
     <g id="line2d_3">
      <g>
       <use style="stroke:#000000;stroke-width:0.8;" x="203.688051" xlink:href="#m297e92ea27" y="307.584"/>
      </g>
     </g>
     <g id="text_3">
      <text style="font-family:DejaVu Sans;font-size:10px;font-style:normal;font-weight:normal;text-anchor:middle;" transform="rotate(-0, 203.688051, 322.182437)" x="203.688051" y="322.182437">0.4</text>
     </g>
    </g>
    <g id="xtick_4">
     <g id="line2d_4">
      <g>
       <use style="stroke:#000000;stroke-width:0.8;" x="268.631949" xlink:href="#m297e92ea27" y="307.584"/>
      </g>
     </g>
     <g id="text_4">
      <text style="font-family:DejaVu Sans;font-size:10px;font-style:normal;font-weight:normal;text-anchor:middle;" transform="rotate(-0, 268.631949, 322.182437)" x="268.631949" y="322.182437">0.6</text>
     </g>
    </g>
    <g id="xtick_5">
     <g id="line2d_5">
      <g>
       <use style="stroke:#000000;stroke-width:0.8;" x="333.575847" xlink:href="#m297e92ea27" y="307.584"/>
      </g>
     </g>
     <g id="text_5">
      <text style="font-family:DejaVu Sans;font-size:10px;font-style:normal;font-weight:normal;text-anchor:middle;" transform="rotate(-0, 333.575847, 322.182437)" x="333.575847" y="322.182437">0.8</text>
     </g>
    </g>
    <g id="xtick_6">
     <g id="line2d_6">
      <g>
       <use style="stroke:#000000;stroke-width:0.8;" x="398.519745" xlink:href="#m297e92ea27" y="307.584"/>
      </g>
     </g>
     <g id="text_6">
      <text style="font-family:DejaVu Sans;font-size:10px;font-style:normal;font-weight:normal;text-anchor:middle;" transform="rotate(-0, 398.519745, 322.182437)" x="398.519745" y="322.182437">1.0</text>
     </g>
    </g>
    <g id="text_7">
     <text style="font-family:DejaVu Sans;font-size:10px;font-style:normal;font-weight:normal;text-anchor:middle;" transform="rotate(-0, 236.16, 335.860562)" x="236.16" y="335.860562">Probability</text>
    </g>
   </g>
   <g id="matplotlib.axis_2">
    <g id="ytick_1">
     <g id="line2d_7">
      <defs>
       <path d="M 0 0 
L -3.5 0 
" id="m442d139eb5" style="stroke:#000000;stroke-width:0.8;"/>
      </defs>
      <g>
       <use style="stroke:#000000;stroke-width:0.8;" x="57.6" xlink:href="#m442d139eb5" y="301.721214"/>
      </g>
     </g>
     <g id="text_8">
      <text style="font-family:DejaVu Sans;font-size:10px;font-style:normal;font-weight:normal;text-anchor:end;" transform="rotate(-0, 50.6, 305.520432)" x="50.6" y="305.520432">5</text>
     </g>
    </g>
    <g id="ytick_2">
     <g id="line2d_8">
      <g>
       <use style="stroke:#000000;stroke-width:0.8;" x="57.6" xlink:href="#m442d139eb5" y="268.706311"/>
      </g>
     </g>
     <g id="text_9">
      <text style="font-family:DejaVu Sans;font-size:10px;font-style:normal;font-weight:normal;text-anchor:end;" transform="rotate(-0, 50.6, 272.50553)" x="50.6" y="272.50553">10</text>
     </g>
    </g>
    <g id="ytick_3">
     <g id="line2d_9">
      <g>
       <use style="stroke:#000000;stroke-width:0.8;" x="57.6" xlink:href="#m442d139eb5" y="235.691408"/>
      </g>
     </g>
     <g id="text_10">
      <text style="font-family:DejaVu Sans;font-size:10px;font-style:normal;font-weight:normal;text-anchor:end;" transform="rotate(-0, 50.6, 239.490627)" x="50.6" y="239.490627">15</text>
     </g>
    </g>
    <g id="ytick_4">
     <g id="line2d_10">
      <g>
       <use style="stroke:#000000;stroke-width:0.8;" x="57.6" xlink:href="#m442d139eb5" y="202.676506"/>
      </g>
     </g>
     <g id="text_11">
      <text style="font-family:DejaVu Sans;font-size:10px;font-style:normal;font-weight:normal;text-anchor:end;" transform="rotate(-0, 50.6, 206.475725)" x="50.6" y="206.475725">20</text>
     </g>
    </g>
    <g id="ytick_5">
     <g id="line2d_11">
      <g>
       <use style="stroke:#000000;stroke-width:0.8;" x="57.6" xlink:href="#m442d139eb5" y="169.661603"/>
      </g>
     </g>
     <g id="text_12">
      <text style="font-family:DejaVu Sans;font-size:10px;font-style:normal;font-weight:normal;text-anchor:end;" transform="rotate(-0, 50.6, 173.460822)" x="50.6" y="173.460822">25</text>
     </g>
    </g>
    <g id="ytick_6">
     <g id="line2d_12">
      <g>
       <use style="stroke:#000000;stroke-width:0.8;" x="57.6" xlink:href="#m442d139eb5" y="136.646701"/>
      </g>
     </g>
     <g id="text_13">
      <text style="font-family:DejaVu Sans;font-size:10px;font-style:normal;font-weight:normal;text-anchor:end;" transform="rotate(-0, 50.6, 140.44592)" x="50.6" y="140.44592">30</text>
     </g>
    </g>
    <g id="ytick_7">
     <g id="line2d_13">
      <g>
       <use style="stroke:#000000;stroke-width:0.8;" x="57.6" xlink:href="#m442d139eb5" y="103.631798"/>
      </g>
     </g>
     <g id="text_14">
      <text style="font-family:DejaVu Sans;font-size:10px;font-style:normal;font-weight:normal;text-anchor:end;" transform="rotate(-0, 50.6, 107.431017)" x="50.6" y="107.431017">35</text>
     </g>
    </g>
    <g id="ytick_8">
     <g id="line2d_14">
      <g>
       <use style="stroke:#000000;stroke-width:0.8;" x="57.6" xlink:href="#m442d139eb5" y="70.616896"/>
      </g>
     </g>
     <g id="text_15">
      <text style="font-family:DejaVu Sans;font-size:10px;font-style:normal;font-weight:normal;text-anchor:end;" transform="rotate(-0, 50.6, 74.416114)" x="50.6" y="74.416114">40</text>
     </g>
    </g>
    <g id="text_16">
     <text style="font-family:DejaVu Sans;font-size:10px;font-style:normal;font-weight:normal;text-anchor:middle;" transform="rotate(-90, 31.795312, 174.528)" x="31.795312" y="174.528">Average Bits Consumed Per Call</text>
    </g>
   </g>
   <g id="line2d_15">
    <path clip-path="url(#pba9c66ce9f)" d="M 73.832727 294.550377 
L 77.112066 294.418317 
L 80.391405 294.854114 
L 83.670744 294.405111 
L 86.950083 293.850461 
L 90.229421 295.118233 
L 93.50876 295.461588 
L 96.788099 295.105027 
L 100.067438 295.052203 
L 103.346777 294.920144 
L 106.626116 294.93335 
L 109.905455 294.510759 
L 113.184793 294.365493 
L 116.464132 295.488 
L 119.743471 294.140992 
L 123.02281 294.972968 
L 126.302149 293.599548 
L 129.581488 293.309016 
L 132.860826 292.860014 
L 136.140165 292.820396 
L 139.419504 293.652371 
L 142.698843 293.441076 
L 145.978182 292.25254 
L 149.257521 292.6091 
L 152.53686 293.348634 
L 155.816198 294.484347 
L 159.095537 292.239334 
L 162.374876 292.278951 
L 165.654215 293.282605 
L 168.933554 290.945149 
L 172.212893 292.780778 
L 175.492231 292.028038 
L 178.77157 291.064003 
L 182.050909 291.513006 
L 185.330248 290.469735 
L 188.609587 290.984767 
L 191.888926 291.671477 
L 195.168264 289.558524 
L 198.447603 290.218822 
L 201.726942 290.364087 
L 205.006281 290.694236 
L 208.28562 288.185104 
L 211.564959 288.053044 
L 214.844298 287.683277 
L 218.123636 287.960602 
L 221.402975 290.562177 
L 224.682314 285.517499 
L 227.961653 287.392746 
L 231.240992 288.541665 
L 234.520331 285.702383 
L 237.799669 287.353128 
L 241.079008 286.019326 
L 244.358347 285.477882 
L 247.637686 286.270239 
L 250.917025 287.93419 
L 254.196364 287.326716 
L 257.475702 285.464676 
L 260.755041 286.349475 
L 264.03438 285.345822 
L 267.313719 283.19325 
L 270.593058 284.07805 
L 273.872397 281.027473 
L 277.151736 283.589429 
L 280.431074 283.12722 
L 283.710413 282.731042 
L 286.989752 279.601229 
L 290.269091 283.153632 
L 293.54843 275.441351 
L 296.827769 280.895413 
L 300.107107 279.931378 
L 303.386446 279.904966 
L 306.665785 278.676812 
L 309.945124 277.937278 
L 313.224463 272.40398 
L 316.503802 274.794259 
L 319.78314 275.309292 
L 323.062479 274.015107 
L 326.341818 275.718676 
L 329.621157 270.185379 
L 332.900496 271.268267 
L 336.179835 268.811959 
L 339.459174 271.994595 
L 342.738512 271.149414 
L 346.017851 271.413533 
L 349.29719 269.234549 
L 352.576529 267.887541 
L 355.855868 268.098837 
L 359.135207 262.895688 
L 362.414545 261.773182 
L 365.693884 263.265455 
L 368.973223 259.316873 
L 372.252562 260.214878 
L 375.531901 254.840052 
L 378.81124 247.52395 
L 382.090579 247.180595 
L 385.369917 233.78975 
L 388.649256 227.490507 
L 391.928595 228.401718 
L 395.207934 222.591095 
L 398.487273 53.568 
" style="fill:none;stroke:#1f77b4;stroke-linecap:square;stroke-width:1.5;"/>
   </g>
   <g id="patch_3">
    <path d="M 57.6 307.584 
L 57.6 41.472 
" style="fill:none;stroke:#000000;stroke-linecap:square;stroke-linejoin:miter;stroke-width:0.8;"/>
   </g>
   <g id="patch_4">
    <path d="M 414.72 307.584 
L 414.72 41.472 
" style="fill:none;stroke:#000000;stroke-linecap:square;stroke-linejoin:miter;stroke-width:0.8;"/>
   </g>
   <g id="patch_5">
    <path d="M 57.6 307.584 
L 414.72 307.584 
" style="fill:none;stroke:#000000;stroke-linecap:square;stroke-linejoin:miter;stroke-width:0.8;"/>
   </g>
   <g id="patch_6">
    <path d="M 57.6 41.472 
L 414.72 41.472 
" style="fill:none;stroke:#000000;stroke-linecap:square;stroke-linejoin:miter;stroke-width:0.8;"/>
   </g>
   <g id="text_17">
    <text style="font-family:DejaVu Sans;font-size:12px;font-style:normal;font-weight:normal;text-anchor:middle;" transform="rotate(-0, 236.16, 35.472)" x="236.16" y="35.472">Avg. Bits Consumed by log(1+x) (Flajolet) Algorithm</text>
   </g>
   <g id="legend_1">
    <g id="patch_7">
     <path d="M 64.6 64.150125 
L 187.696875 64.150125 
Q 189.696875 64.150125 189.696875 62.150125 
L 189.696875 48.472 
Q 189.696875 46.472 187.696875 46.472 
L 64.6 46.472 
Q 62.6 46.472 62.6 48.472 
L 62.6 62.150125 
Q 62.6 64.150125 64.6 64.150125 
z
" style="fill:#ffffff;opacity:0.8;stroke:#cccccc;stroke-linejoin:miter;"/>
    </g>
    <g id="line2d_16">
     <path d="M 66.6 54.570438 
L 86.6 54.570438 
" style="fill:none;stroke:#1f77b4;stroke-linecap:square;stroke-width:1.5;"/>
    </g>
    <g id="line2d_17"/>
    <g id="text_18">
     <text style="font-family:DejaVu Sans;font-size:10px;font-style:normal;font-weight:normal;text-anchor:start;" transform="rotate(-0, 94.6, 58.070438)" x="94.6" y="58.070438">log(1+x) (Flajolet)</text>
    </g>
   </g>
  </g>
 </g>
 <defs>
  <clipPath id="pba9c66ce9f">
   <rect height="266.112" width="357.12" x="57.6" y="41.472"/>
  </clipPath>
 </defs>
</svg>

<svg height="460.8" viewBox="0 0 460.8 345.6" width="614.4" xmlns="http://www.w3.org/2000/svg" xmlns:xlink="http://www.w3.org/1999/xlink"><defs><style>*{stroke-linecap:butt;stroke-linejoin:round}</style></defs><g id="figure_1"><path d="M0 345.6h460.8V0H0z" fill="#fff" id="patch_1"/><g id="axes_1"><path d="M57.6 307.584h357.12V41.472H57.6z" fill="#fff" id="patch_2"/><g id="matplotlib.axis_1"><g id="xtick_1"><g id="line2d_1"><defs><path d="M0 0v3.5" id="m297e92ea27" stroke="#000" stroke-width=".8"/></defs><use x="73.8" xlink:href="#m297e92ea27" y="307.584" stroke="#000" stroke-width=".8"/></g><text x="73.8" y="322.182" font-family="DejaVu Sans" font-size="10" font-weight="400" text-anchor="middle" id="text_1">0.0</text></g><g id="xtick_2"><use x="138.744" xlink:href="#m297e92ea27" y="307.584" stroke="#000" stroke-width=".8" id="line2d_2"/><text x="138.744" y="322.182" font-family="DejaVu Sans" font-size="10" font-weight="400" text-anchor="middle" id="text_2">0.2</text></g><g id="xtick_3"><use x="203.688" xlink:href="#m297e92ea27" y="307.584" stroke="#000" stroke-width=".8" id="line2d_3"/><text x="203.688" y="322.182" font-family="DejaVu Sans" font-size="10" font-weight="400" text-anchor="middle" id="text_3">0.4</text></g><g id="xtick_4"><use x="268.632" xlink:href="#m297e92ea27" y="307.584" stroke="#000" stroke-width=".8" id="line2d_4"/><text x="268.632" y="322.182" font-family="DejaVu Sans" font-size="10" font-weight="400" text-anchor="middle" id="text_4">0.6</text></g><g id="xtick_5"><use x="333.576" xlink:href="#m297e92ea27" y="307.584" stroke="#000" stroke-width=".8" id="line2d_5"/><text x="333.576" y="322.182" font-family="DejaVu Sans" font-size="10" font-weight="400" text-anchor="middle" id="text_5">0.8</text></g><g id="xtick_6"><use x="398.52" xlink:href="#m297e92ea27" y="307.584" stroke="#000" stroke-width=".8" id="line2d_6"/><text x="398.52" y="322.182" font-family="DejaVu Sans" font-size="10" font-weight="400" text-anchor="middle" id="text_6">1.0</text></g><text x="236.16" y="335.861" font-family="DejaVu Sans" font-size="10" font-weight="400" text-anchor="middle" id="text_7">Probability</text></g><g id="matplotlib.axis_2"><g id="ytick_1"><g id="line2d_7"><defs><path d="M0 0h-3.5" id="m442d139eb5" stroke="#000" stroke-width=".8"/></defs><use x="57.6" xlink:href="#m442d139eb5" y="301.721" stroke="#000" stroke-width=".8"/></g><text x="50.6" y="305.52" font-family="DejaVu Sans" font-size="10" font-weight="400" text-anchor="end" id="text_8">5</text></g><g id="ytick_2"><use x="57.6" xlink:href="#m442d139eb5" y="268.706" stroke="#000" stroke-width=".8" id="line2d_8"/><text x="50.6" y="272.506" font-family="DejaVu Sans" font-size="10" font-weight="400" text-anchor="end" id="text_9">10</text></g><g id="ytick_3"><use x="57.6" xlink:href="#m442d139eb5" y="235.691" stroke="#000" stroke-width=".8" id="line2d_9"/><text x="50.6" y="239.491" font-family="DejaVu Sans" font-size="10" font-weight="400" text-anchor="end" id="text_10">15</text></g><g id="ytick_4"><use x="57.6" xlink:href="#m442d139eb5" y="202.677" stroke="#000" stroke-width=".8" id="line2d_10"/><text x="50.6" y="206.476" font-family="DejaVu Sans" font-size="10" font-weight="400" text-anchor="end" id="text_11">20</text></g><g id="ytick_5"><use x="57.6" xlink:href="#m442d139eb5" y="169.662" stroke="#000" stroke-width=".8" id="line2d_11"/><text x="50.6" y="173.461" font-family="DejaVu Sans" font-size="10" font-weight="400" text-anchor="end" id="text_12">25</text></g><g id="ytick_6"><use x="57.6" xlink:href="#m442d139eb5" y="136.647" stroke="#000" stroke-width=".8" id="line2d_12"/><text x="50.6" y="140.446" font-family="DejaVu Sans" font-size="10" font-weight="400" text-anchor="end" id="text_13">30</text></g><g id="ytick_7"><use x="57.6" xlink:href="#m442d139eb5" y="103.632" stroke="#000" stroke-width=".8" id="line2d_13"/><text x="50.6" y="107.431" font-family="DejaVu Sans" font-size="10" font-weight="400" text-anchor="end" id="text_14">35</text></g><g id="ytick_8"><use x="57.6" xlink:href="#m442d139eb5" y="70.617" stroke="#000" stroke-width=".8" id="line2d_14"/><text x="50.6" y="74.416" font-family="DejaVu Sans" font-size="10" font-weight="400" text-anchor="end" id="text_15">40</text></g><text transform="rotate(-90 31.795 174.528)" x="31.795" y="174.528" font-family="DejaVu Sans" font-size="10" font-weight="400" text-anchor="middle" id="text_16">Average Bits Consumed Per Call</text></g><path clip-path="url(#pba9c66ce9f)" d="M73.833 294.55l3.28-.132 3.278.436 3.28-.449 3.28-.555 3.278 1.268 3.28.344 3.28-.357 3.278-.053 3.28-.132 3.28.013 3.278-.422 3.28-.146 3.28 1.123 3.278-1.347 3.28.832 3.28-1.373 3.278-.291 3.28-.449 3.28-.04 3.279.832 3.279-.21 3.28-1.19 3.279.357 3.279.74 3.28 1.135 3.279-2.245 3.279.04 3.28 1.004 3.279-2.338 3.279 1.836 3.28-.753 3.279-.964 3.279.449 3.28-1.043 3.279.515 3.279.686 3.28-2.112 3.279.66 3.279.145 3.28.33 3.279-2.509 3.279-.132 3.28-.37 3.279.278 3.279 2.601 3.28-5.045 3.279 1.876 3.279 1.149 3.28-2.84 3.279 1.651 3.279-1.334 3.28-.541 3.279.792 3.279 1.664 3.28-.607 3.279-1.862 3.279.884 3.28-1.003 3.279-2.153 3.28.885 3.278-3.05 3.28 2.561 3.28-.462 3.278-.396 3.28-3.13 3.28 3.553 3.278-7.713 3.28 5.454 3.28-.964 3.278-.026 3.28-1.228 3.28-.74 3.278-5.533 3.28 2.39 3.28.515 3.278-1.294 3.28 1.704 3.28-5.534 3.278 1.083 3.28-2.456 3.28 3.183 3.279-.846 3.279.265 3.28-2.18 3.279-1.346 3.279.21 3.28-5.202 3.279-1.123 3.279 1.492 3.28-3.948 3.279.898 3.279-5.375 3.28-7.316 3.279-.343 3.279-13.391 3.28-6.3 3.279.912 3.279-5.81 3.28-169.024" fill="none" stroke="#1f77b4" stroke-linecap="square" stroke-width="1.5" id="line2d_15"/><path d="M57.6 307.584V41.472" fill="none" stroke="#000" stroke-linecap="square" stroke-width=".8" id="patch_3"/><path d="M414.72 307.584V41.472" fill="none" stroke="#000" stroke-linecap="square" stroke-width=".8" id="patch_4"/><path d="M57.6 307.584h357.12" fill="none" stroke="#000" stroke-linecap="square" stroke-width=".8" id="patch_5"/><path d="M57.6 41.472h357.12" fill="none" stroke="#000" stroke-linecap="square" stroke-width=".8" id="patch_6"/><text x="236.16" y="35.472" font-family="DejaVu Sans" font-size="12" font-weight="400" text-anchor="middle" id="text_17">Avg. Bits Consumed by log(1+x) (Flajolet) Algorithm</text><g id="legend_1"><path d="M64.6 64.15h123.097q2 0 2-2V48.472q0-2-2-2H64.6q-2 0-2 2V62.15q0 2 2 2z" fill="#fff" opacity=".8" stroke="#ccc" id="patch_7"/><path d="M66.6 54.57h20" fill="none" stroke="#1f77b4" stroke-linecap="square" stroke-width="1.5" id="line2d_16"/><text x="94.6" y="58.07" font-family="DejaVu Sans" font-size="10" font-weight="400" id="text_18">log(1+x) (Flajolet)</text></g></g></g><defs><clipPath id="pba9c66ce9f"><path d="M57.6 41.472h357.12v266.112H57.6z"/></clipPath></defs></svg>
